**kern
*part1
*staff1
*clefC4
*k[b-e-]
1%0r
=2
1%0r
=3
1%0r
=4
1%0r
=5
1%0r
=6
1%0r
=7
1%0r
=8
8r
8B-y
8c
32dL
32e-y
16fJ
8d
8c
8B-y
32cL
32d
16e-yJ
=9
8A
8F
4r
2r
=10
1%0r
8r
8B-y
8c
32dL
32e-y
16fJ
8d
8c
8B-y
32cL
32d
16e-yJ
=11
8A
8F
8r
=-
*-
